X:1
T:Partita I Allemande
T:BWV 825
T:J. S. Bach
%%score { ( 1 3 ) | ( 2 4 ) }
L:1/8
M:4/4
K:Bb
V:1 treble nm="Harp"
V:3 treble 
V:2 bass 
V:4 bass 
V:1
 f/ | f/d/B/A/ B/d/F/B/ D/F/B,/D/ F/_A/d/f/ | g/e/B/A/ B/e/G/B/ E/G/B,/E/ G/B/e/g/ | %3
 a/e/c/B/ c/e/A/c/ E/A/C/E/ A/c/e/a/ | b/f/d/c/ d/f/B/d/ F/B/D/F/ z/ GF/ | %5
 z/ c/=E/D/ E/G/C/E/ z/ A,/C/_E/ D/C/c/D/ | E/G/c/=B/ c/e/A/c/ _G/A/c/e/ d/c/a/c/ | %7
 z/ c/B/A/ B/d/=e/f/ g/c/B/A/ B/g/B/f/ | B/f/=e/d/ e/g/a/b/ c'/f/e/d/ e/c'/e/b/ | %9
 =e/b/a/g/ f/a/e/a/ d/a/d/c/ B/d/A/d/ | G/a/g/f/ =e/g/d/g/ c/g/c/B/ A/c/G/c/ | %11
 F/g/f/=e/ d/f/c/f/ B/f/B/A/ G/B/F/B/ | F/4=E/4F/4E/4F/4E/4F/4E/4 z C FG/A/ BB/4A/4G/ | %13
 A2 z/ C/F/G/ A/F/=B/c/ d/F/c/B/ | c2 z G cd/=e/ ff/4e/4d/ | =ef/g/ _aa/4g/4f/ ga/b/ c'c'/4b/4a/ | %16
 b/g/=e/c/ B/G/c/e/ f/c/A/F/ z/ G/B/e/ | f>e d>d z/ d/c z/ A/B | AF z/ F=E/ [CF]3 z/ f/ | %19
 f/d/B/A/ B/d/F/B/ D/F/B,/D/ F/_A/d/f/ | g/e/B/A/ B/e/G/B/ E/G/B,/E/ G/B/e/g/ | %21
 a/e/c/B/ c/e/A/c/ E/A/C/E/ A/c/e/a/ | b/f/d/c/ d/f/B/d/ F/B/D/F/ z/ GF/ | %23
 z/ c/=E/D/ E/G/C/E/ z/ A,/C/_E/ D/C/c/D/ | E/G/c/=B/ c/e/A/c/ _G/A/c/e/ d/c/a/c/ | %25
 z/ c/B/A/ B/d/=e/f/ g/c/B/A/ B/g/B/f/ | B/f/=e/d/ e/g/a/b/ c'/f/e/d/ e/c'/e/b/ | %27
 =e/b/a/g/ f/a/e/a/ d/a/d/c/ B/d/A/d/ | G/a/g/f/ =e/g/d/g/ c/g/c/B/ A/c/G/c/ | %29
 F/g/f/=e/ d/f/c/f/ B/f/B/A/ G/B/F/B/ | F/4=E/4F/4E/4F/4E/4F/4E/4 z C FG/A/ BB/4A/4G/ | %31
 A2 z/ C/F/G/ A/F/=B/c/ d/F/c/B/ | c2 z G cd/=e/ ff/4e/4d/ | =ef/g/ _aa/4g/4f/ ga/b/ c'c'/4b/4a/ | %34
 b/g/=e/c/ B/G/c/e/ f/c/A/F/ z/ G/B/e/ | f>e d>d z/ d/c z/ A/B | AF z/ F=E/ [CF]3 z/ c/ | %37
 c/A/F/=E/ F/A/C/F/[I:staff +1] A,/C/F,/A,/ C/[I:staff -1]_E/A/B/ | %38
 c/A/E/D/ E/A/C/E/[I:staff +1] A,/C/^F,/A,/ D/[I:staff -1]^F/A/c/ | B4- B/B/A/G/ A/c/^F/G/ | %40
 ^F2 C/E/A,/C/[I:staff +1] ^F,/A,/[I:staff -1]D/F/ G/D/A/D/ | B2 F/_A/D/F/ =B,/D/G/=B/ c/G/d/F/ | %42
 E/G/A/=B/ c/e/_B/e/ _A/e/A/G/ F/A/E/A/ | D/F/G/A/ B/d/^G/d/ =G/d/G/F/ E/G/D/G/ | %44
 C/E/F/G/ _A/c/G/c/ F/c/F/E/ D/F/C/F/ | =B,2 z G, CD/E/ FF/4E/4D/ | %46
 E2 z/ G,/C/D/ E/C/^F/G/ A/C/G/F/ | G2 z D GA/=B/ cc/4B/4A/ | =Bc/d/ ee/4d/4c/ de/f/ gg/4f/4e/ | %49
 f/d/=B/G/ F/D/G/B/ c/G/E/C/ z/ D/F/B/ | c/G/E/C/ E/G/c/d/ e/c/A/G/ A/c/F/c/ | %51
 d/f/B/A/ B/d/f/g/ _a/f/d/c/ d/f/B/f/ | g/b/e/d/ e/g/a/b/ c'/f/e/d/ e/f/c/e/ | %53
 d/_A/G/F/ =E/G/B/G/ =A/e/d/c/ d/B/F/A/ | B/d/f/g/ _a/f/d/B/ z/ B/e/g/ b/g/=e/_d/ | %55
 z/ c/e/a/ c'/a/_g/e/ d/b/=g/=e/ f/B/A/_e/ | d/_A/G/c/ B/F/E/=A/ [FB]3 z/ c/ | %57
 c/A/F/=E/ F/A/C/F/[I:staff +1] A,/C/F,/A,/ C/[I:staff -1]_E/A/B/ | %58
 c/A/E/D/ E/A/C/E/[I:staff +1] A,/C/^F,/A,/ D/[I:staff -1]^F/A/c/ | B4- B/B/A/G/ A/c/^F/G/ | %60
 ^F2 C/E/A,/C/[I:staff +1] ^F,/A,/[I:staff -1]D/F/ G/D/A/D/ | B2 F/_A/D/F/ =B,/D/G/=B/ c/G/d/F/ | %62
 E/G/A/=B/ c/e/_B/e/ _A/e/A/G/ F/A/E/A/ | D/F/G/A/ B/d/^G/d/ =G/d/G/F/ E/G/D/G/ | %64
 C/E/F/G/ _A/c/G/c/ F/c/F/E/ D/F/C/F/ | =B,2 z G, CD/E/ FF/4E/4D/ | %66
 E2 z/ G,/C/D/ E/C/^F/G/ A/C/G/F/ | G2 z D GA/=B/ cc/4B/4A/ | =Bc/d/ ee/4d/4c/ de/f/ gg/4f/4e/ | %69
 f/d/=B/G/ F/D/G/B/ c/G/E/C/ z/ D/F/B/ | c/G/E/C/ E/G/c/d/ e/c/A/G/ A/c/F/c/ | %71
 d/f/B/A/ B/d/f/g/ _a/f/d/c/ d/f/B/f/ | g/b/e/d/ e/g/a/b/ c'/f/e/d/ e/f/c/e/ | %73
 d/_A/G/F/ =E/G/B/G/ =A/e/d/c/ d/B/F/A/ | B/d/f/g/ _a/f/d/B/ z/ B/e/g/ b/g/=e/_d/ | %75
 z/ c/e/a/ c'/a/_g/e/ d/b/=g/=e/ f/B/A/_e/ | d/_A/G/c/ B/F/E/=A/ [FB]3 z |] %77
V:2
 z/ | B,,2 z2 z4 | B,,2 z2 z4 | B,,2 z2 z4 | B,,2 z4 B,A, | [B,,G,]2 z2 [A,,^F,]2 z2 | %6
 [G,,G,]2 z2 z4 | G,, G,2 F, =E, =E2 D | C C,2 B,, A,, A,2 G, | %9
 F,[I:staff -1]FAc B[I:staff +1]B,[I:staff -1] DF |[I:staff +1] =E,=EGB AA,CE | %11
 D,[I:staff -1]D FA G[I:staff +1]G, B,D | C,/C/B,/A,/ G,/F,/=E,/D,/ C,/A,/G,/F,/ E,/G,/C,/E,/ | %13
 C,, z z2 F,/=E,/D,/C,/ =B,,/G,/G,,/F,/ | C,, z z2 A,/C/F/=E/ _A,/D/C/=B,/ | %15
 G,/B,/_D/C/ F,/C/B,/_A,/ _F,/B,/A,/G,/ =F,/=E,/D,/C,/ |[I:staff -1] =EG[I:staff +1] CB, A,B,CC, | %17
 z/ D/C z/ C/D z/ A,/B, z/ F,/G, | z/ G,/_A,- A,G, F,3 z | B,,2 z2 D/F/B,/D/ F/ z/ z | %20
 B,,2 z2 E/G/B,/E/ G/ z/ z | B,,2 z2 E/A/C/E/ A/ z/ z | B,,2 z4 B,A, | [B,,G,]2 z2 [A,,_G,]2 z2 | %24
 [G,,G,]2 z2 _G/A/ z z2 | G,, G,2 F, =E, =E2 D | C C,2 B,, A,, A,2 G, | F,FAc BB,DF | %28
 =E,=EGB AA,CE | D,DFA GG,B,D | C,/C/B,/A,/ G,/F,/=E,/D,/ C,/A,/G,/F,/ E,/G,/C,/E,/ | %31
 C,, z C/B,/A,/G,/ F,/=E,/D,/C,/ =B,,/G,/G,,/F,/ | C,, z =E/D/C/B,/ A,/C/F/E/ ^G,/D/C/=B,/ | %33
 G,/B,/_D/C/ F,/C/B,/_A,/ _F,/B,/A,/G,/ =F,/=E,/D,/C,/ | =EGCB, A,B,CC, | %35
 z/ D/C z/ C/D z/ A,/B, z/ F,/G, | z/ G,/_A,- A,G, F,3 z | F,,2 z2 z4 | ^F,,2 z2 z4 | %39
 G,,A,,B,,G,, C,B,,C,A,, | D,2 z2 z C,B,,A,, | G,,2 z2 z F,E,D, | C,C EG FF, _A,C | %43
 B,,B, DF EE, G,B, | _A,,_A, CE DD, F,A, | %45
 z/ G,/F,/E,/ D,/C,/=B,,/A,,/ G,,/E,/D,/C,/ B,,/D,/G,,/B,,/ | %46
 G,,, z z2 C,/B,,/A,,/G,,/ _G,,/D,/D,,/C,/ | G,,, z z2 E,/G,/C/D/ ^F,/E/D/C/ | %48
 G,/D/E/F/ A,/G/F/E/ _C/F/E/D/ =C/E/D/C/ | DF G,F, E,F, G,G,, | C,G, CB, A,C F,A, | %51
 B,,D, F,B, DF B,D | ED CB, A,C F,A, | B,D G,C F,B, E,F, | B,,_A, DF B,,B, EG | %55
 B,,C[I:staff -1] EA B/D/C/B,/ F[I:staff +1]F, | B,4 [B,,B,]3 z/ z/ | F,,2 z2 z4 | ^F,,2 z2 z4 | %59
 G,,A,,B,,G,, C,B,,C,A,, | D,2 z2 z C,B,,A,, | G,,2 z2 z F,E,D, | C,C EG FF, _A,C | %63
 B,,B, DF EE, G,B, | _A,,_A, CE DD, F,A, | %65
 z/ G,/F,/E,/ D,/C,/=B,,/A,,/ G,,/E,/D,/C,/ B,,/D,/G,,/B,,/ | %66
 G,,, z z2 C,/B,,/A,,/G,,/ _G,,/D,/D,,/C,/ | G,,, z z2 E,/G,/C/D/ ^F,/E/D/C/ | %68
 G,/D/E/F/ A,/G/F/E/ _C/F/E/D/ =C/E/D/C/ | DF G,F, E,F, G,G,, | C,G, CB, A,C F,A, | %71
 B,,D, F,B, DF B,D | ED CB, A,C F,A, | B,D G,C F,B, E,F, | B,,_A, DF B,,B, EG | %75
 B,,C[I:staff -1] EA B/D/C/B,/ F[I:staff +1]F, | B,4 [B,,B,]3 z |] %77
V:3
 x/ | x8 | x8 | x8 | x8 | x8 | x8 | x8 | x8 | x8 | x8 | x8 | x8 | %13
 z/ F/=E/D/[I:staff +1] C/B,/A,/G,/[I:staff -1] z4 | z/ A/G/F/ =E/D/C/B,/ z4 | x8 | x8 | %17
 z/ B/A z/ A/B =E>F G>G | z/ =E/F/=B,/ C_B, A,3 z | x8 | x8 | x8 | x8 | x8 | x8 | x8 | x8 | x8 | %28
 x8 | x8 | x8 | z/ F/=E/D/[I:staff +1] C/B,/A,/G,/[I:staff -1] z4 | z/ A/G/F/ =E/D/C/B,/ z4 | x8 | %34
 x8 | z/ B/A z/ A/B =E>F G>G | z/ =E/F/=B,/ C_B, A,3 z | x8 | x8 | z/ A/G/^F/ G/B/D/=F/ E4 | %40
 z/ D/C/B,/ z2 z4 | z/ G/F/E/ z2 z4 | x8 | x8 | x8 | x8 | %46
 z/ C/=B,/A,/[I:staff +1] G,/F,/E,/D,/[I:staff -1] z4 | %47
 z/ E/D/C/[I:staff +1] =B,/A,/G,/F,/[I:staff -1] z4 | x8 | x8 | x8 | x8 | x8 | x8 | x8 | x8 | %56
 z EDC D3 z/ z/ | x8 | x8 | z/ A/G/^F/ G/B/D/=F/ E4 | z/ D/C/B,/ z2 z4 | z/ G/F/E/ z2 z4 | x8 | %63
 x8 | x8 | x8 | z/ C/=B,/A,/[I:staff +1] G,/F,/E,/D,/[I:staff -1] z4 | %67
 z/ E/D/C/[I:staff +1] =B,/A,/G,/F,/[I:staff -1] z4 | x8 | x8 | x8 | x8 | x8 | x8 | x8 | x8 | %76
 z EDC D3 x |] %77
V:4
 x/ | x8 | x8 | x8 | x8 | x8 | x8 | x8 | x8 | x8 | x8 | x8 | x8 | x8 | x8 | x8 | x8 | %17
 F,>A, B,>A, G,>F, =E,>E, | F,>D, C,C,, F,,3 z | x8 | x8 | x8 | x8 | x8 | x8 | x8 | x8 | x8 | x8 | %29
 x8 | x8 | x8 | x8 | x8 | x8 | F,>A, B,>A, G,>F, =E,>E, | F,>D, C,C,, F,,3 z | x8 | x8 | x8 | x8 | %41
 x8 | x8 | x8 | x8 | G,,2 z2 z4 | x8 | x8 | x8 | x8 | x8 | x8 | x8 | x8 | x8 | x8 | x8 | x8 | x8 | %59
 x8 | x8 | x8 | x8 | x8 | x8 | G,,2 z2 z4 | x8 | x8 | x8 | x8 | x8 | x8 | x8 | x8 | x8 | x8 | x8 |] %77

